export-variant.svg

<svg fill="currentColor" viewBox="0 0 24 24"><path d="M12 1 8 5h3v9h2V5h3m2 18H6a2 2 0 0 1-2-2V9a2 2 0 0 1 2-2h3v2H6v12h12V9h-3V7h3a2 2 0 0 1 2 2v12a2 2 0 0 1-2 2"/></svg>

<svg  viewBox="0 0 24 24" fill="currentColor"><path  d="M12,1L8,5H11V14H13V5H16M18,23H6C4.89,23 4,22.1 4,21V9A2,2 0 0,1 6,7H9V9H6V21H18V9H15V7H18A2,2 0 0,1 20,9V21A2,2 0 0,1 18,23Z"/></svg>
